X: 14081
T: Fremont Center
R: reel
M: 4/4
K: Amixolydian
e4 A3G|EGAA e2ec|d2dc dedc|AcAG EGA2|
[1e4 A3G|EGAA e2ec|d2dc dedc|AcAG EGA2:|
[2e4 A4|e3c d3A|A2BA BcAD|EGAD EGDC||
|:A,2B,A, CEEC|DFGA GFDC|A,2B,A, CA,A,z|eAdA cAEC|
A,2B,A, CEEC|DFGA GFDF|GAGF DFGA|1 eAdA cAEC:|2 eAdA cAcd||

